!! 00000] TT[WS
!!!OTL: Kua meimei
!!!ARE: Asia, China, Shanxi Ningwu
!! Ethnic Group: Han
!! WI, 137 (1)
!!!SCT: J0165
!!!YEM: Copyright 1995, estate of Helmut Schaffrath.
**kern
*ICvox
*Ivox
*M2/4
*k[f#]
*G:
{4dd
8dd
8ee
=1
4dd
8cc
8b
=2
4a
8a
8b
=3
2dd}
=4
{4.b
16b
16a
=5
2g}
=6
{8dd
16dd
16b
8a
8b
=7
8d
8e
8g
8b
=8
8f#
8e
[4d
=9
4d]
4r}
==
!!!AGN: Xiaodiao. Qingge
!!!ONB: ESAC (Essen Associative Code) Database: CHINA
!!!AMT: simple duple
!!!AIN: vox
!!!EED: Helmut Schaffrath
!!!EEV: 1.0
*-
!!!ONB: Tied note syntax fixed by Craig Sapp, 2004/05/03/
